;FLAVOR:UltiGCode
;TIME:2830
;MATERIAL:2785
;MATERIAL2:0
;NOZZLE_DIAMETER:0.4
;MINX:90.128
;MINY:90.182
;MINZ:0.27
;MAXX:132.864
;MAXY:132.819
;MAXZ:12.97
;Generated with Cura_SteamEngine master
M82 ;absolute extrusion mode
G0 F3000 Y50 ;avoid prime blob
G92 E0
G92 E0
G10
;LAYER_COUNT:128
;LAYER:0
M107
G0 F4320 X96.191 Y96.641 Z0.27
;TYPE:SKIRT
G11
G1 F1800 X96.76 Y96.087 E0.07505
G1 X97.381 Y95.594 E0.14998
G1 X98.049 Y95.166 E0.22495
G1 X98.757 Y94.807 E0.29996
G1 X99.497 Y94.522 E0.3749
G1 X99.652 Y94.334 E0.39793
G1 X100.188 Y93.749 E0.47291
G1 X100.78 Y93.22 E0.54793
G1 X101.422 Y92.754 E0.6229
G1 X102.108 Y92.355 E0.69789
G1 X102.631 Y92.109 E0.75251
G1 X103.59 Y91.7 E0.85103
G1 X104.334 Y91.426 E0.92596
G1 X105.103 Y91.228 E1.001
G1 X105.887 Y91.109 E1.07593
G1 X106.68 Y91.069 E1.15097
G1 X107.472 Y91.109 E1.22591
G1 X107.686 Y91.005 E1.24839
G1 X108.413 Y90.688 E1.32334
G1 X109.169 Y90.445 E1.39838
G1 X109.945 Y90.28 E1.47335
G1 X110.734 Y90.194 E1.54836
G1 X111.297 Y90.182 E1.60157
G1 X112.342 Y90.196 E1.70033
G1 X113.134 Y90.246 E1.77533
G1 X113.917 Y90.376 E1.85033
G1 X114.683 Y90.584 E1.92534
G1 X115.424 Y90.869 E2.00037
G1 X116.132 Y91.226 E2.0753
G1 X116.369 Y91.227 E2.09769
G1 X117.163 Y91.231 E2.17273
G1 X117.951 Y91.316 E2.24763
G1 X118.728 Y91.479 E2.32265
G1 X119.484 Y91.72 E2.39763
G1 X120.029 Y91.948 E2.45346
G1 X120.977 Y92.387 E2.55219
G1 X121.679 Y92.756 E2.62713
G1 X122.341 Y93.194 E2.70215
G1 X122.955 Y93.697 E2.77715
G1 X123.516 Y94.258 E2.85213
G1 X124.017 Y94.874 E2.92716
G1 X124.245 Y94.969 E2.9505
G1 X124.968 Y95.298 E3.02557
G1 X125.653 Y95.698 E3.10053
G1 X126.295 Y96.165 E3.17555
G1 X126.886 Y96.693 E3.25044
G1 X127.274 Y97.105 E3.30392
G1 X127.962 Y97.891 E3.40264
G1 X128.453 Y98.514 E3.4776
G1 X128.88 Y99.183 E3.5526
G1 X129.237 Y99.891 E3.62753
G1 X129.522 Y100.632 E3.70255
G1 X129.73 Y101.398 E3.77756
G1 X129.904 Y101.586 E3.80177
G1 X130.43 Y102.18 E3.87675
G1 X130.894 Y102.824 E3.95175
G1 X131.29 Y103.511 E4.02669
G1 X131.615 Y104.235 E4.10168
G1 X131.807 Y104.787 E4.15691
G1 X132.113 Y105.785 E4.25556
G1 X132.307 Y106.555 E4.3306
G1 X132.423 Y107.34 E4.40559
G1 X132.459 Y108.133 E4.4806
G1 X132.415 Y108.925 E4.55556
G1 X132.289 Y109.72 E4.63163
G1 X132.372 Y109.911 E4.65131
G1 X132.612 Y110.668 E4.72635
G1 X132.776 Y111.444 E4.8013
G1 X132.86 Y112.233 E4.87628
G1 X132.864 Y113.026 E4.95122
G1 X132.815 Y113.615 E5.00708
G1 X132.69 Y114.652 E5.10578
G1 X132.556 Y115.434 E5.18076
G1 X132.343 Y116.199 E5.2558
G1 X132.055 Y116.938 E5.33075
G1 X131.694 Y117.645 E5.40577
G1 X131.263 Y118.311 E5.48074
G1 X131.244 Y118.566 E5.5049
G1 X131.154 Y119.355 E5.57994
G1 X130.984 Y120.13 E5.65492
G1 X130.738 Y120.884 E5.72987
G1 X130.417 Y121.61 E5.80489
G1 X130.146 Y122.101 E5.85788
G1 X129.611 Y122.997 E5.9565
G1 X129.171 Y123.657 E6.03146
G1 X128.666 Y124.269 E6.10644
G1 X128.102 Y124.828 E6.18148
G1 X127.485 Y125.326 E6.25641
G1 X126.821 Y125.761 E6.33143
G1 X126.705 Y125.974 E6.35435
G1 X126.303 Y126.658 E6.42932
G1 X125.835 Y127.298 E6.50425
G1 X125.304 Y127.888 E6.57926
G1 X124.717 Y128.422 E6.65425
G1 X124.251 Y128.776 E6.70955
G1 X123.396 Y129.377 E6.80831
G1 X122.724 Y129.8 E6.88335
G1 X122.014 Y130.153 E6.95828
G1 X121.271 Y130.433 E7.03331
G1 X120.505 Y130.637 E7.10822
G1 X119.721 Y130.763 E7.18326
G1 X119.531 Y130.911 E7.20602
G1 X118.885 Y131.372 E7.28102
G1 X118.196 Y131.766 E7.35602
G1 X117.471 Y132.088 E7.43099
G1 X116.717 Y132.336 E7.506
G1 X116.173 Y132.464 E7.55881
G1 X115.146 Y132.668 E7.65776
G1 X114.361 Y132.783 E7.73273
G1 X113.569 Y132.819 E7.80765
G1 X112.776 Y132.775 E7.88271
G1 X111.993 Y132.651 E7.95762
G1 X111.225 Y132.449 E8.03267
G1 X110.975 Y132.502 E8.05682
G1 X110.198 Y132.661 E8.13177
G1 X109.408 Y132.74 E8.20679
G1 X108.615 Y132.74 E8.28173
G1 X107.825 Y132.66 E8.35677
G1 X107.263 Y132.553 E8.41083
G1 X106.246 Y132.321 E8.50941
G1 X105.482 Y132.106 E8.58441
G1 X104.744 Y131.815 E8.65938
G1 X104.038 Y131.451 E8.73444
G1 X103.373 Y131.018 E8.80943
G1 X102.755 Y130.52 E8.88443
G1 X102.51 Y130.474 E8.90799
G1 X101.735 Y130.302 E8.98301
G1 X100.982 Y130.054 E9.05793
G1 X100.257 Y129.73 E9.13297
G1 X99.569 Y129.336 E9.20789
G1 X99.099 Y129.01 E9.26194
G1 X98.264 Y128.384 E9.36057
G1 X97.654 Y127.877 E9.43552
G1 X97.098 Y127.31 E9.51057
G1 X96.602 Y126.691 E9.58552
G1 X96.171 Y126.025 E9.66049
G1 X95.809 Y125.319 E9.73547
G1 X95.603 Y125.179 E9.759
G1 X94.965 Y124.707 E9.834
G1 X94.378 Y124.174 E9.90893
G1 X93.847 Y123.584 E9.98394
G1 X93.379 Y122.943 E10.05894
G1 X93.082 Y122.454 E10.11301
G1 X92.574 Y121.543 E10.21158
G1 X92.223 Y120.832 E10.28651
G1 X91.945 Y120.088 E10.36156
G1 X91.744 Y119.321 E10.43649
G1 X91.621 Y118.537 E10.51149
G1 X91.577 Y117.745 E10.58644
G1 X91.458 Y117.549 E10.60811
G1 X91.065 Y116.86 E10.68307
G1 X90.744 Y116.134 E10.75808
G1 X90.498 Y115.38 E10.83303
G1 X90.328 Y114.605 E10.90801
G1 X90.254 Y114.022 E10.96355
G1 X90.16 Y112.981 E11.06232
G1 X90.128 Y112.188 E11.13732
G1 X90.177 Y111.396 E11.21231
G1 X90.305 Y110.613 E11.28729
G1 X90.511 Y109.847 E11.36224
G1 X90.793 Y109.105 E11.43726
G1 X90.76 Y108.842 E11.46231
G1 X90.685 Y108.052 E11.5373
G1 X90.69 Y107.259 E11.61224
G1 X90.774 Y106.47 E11.68722
G1 X90.938 Y105.694 E11.76217
G1 X91.099 Y105.159 E11.81497
G1 X91.436 Y104.172 E11.91353
G1 X91.73 Y103.435 E11.98851
G1 X92.097 Y102.732 E12.06345
G1 X92.532 Y102.068 E12.13846
G1 X93.032 Y101.452 E12.21344
G1 X93.592 Y100.89 E12.28841
G1 X93.658 Y100.665 E12.31057
G1 X93.908 Y99.912 E12.38555
G1 X94.233 Y99.188 E12.46054
G1 X94.629 Y98.501 E12.53548
G1 X95.092 Y97.856 E12.61051
G1 X95.479 Y97.407 E12.66653
G1 X96.191 Y96.641 E12.76535
G0 F4320 X96.447 Y96.879
G1 F1800 X97.004 Y96.339 E12.83867
G1 X97.613 Y95.859 E12.91194
G1 X98.269 Y95.444 E12.9853
G1 X98.963 Y95.099 E13.05854
G1 X99.69 Y94.827 E13.13189
G1 X99.989 Y94.477 E13.17539
G1 X100.521 Y93.913 E13.24866
G1 X101.109 Y93.406 E13.32203
G1 X101.745 Y92.963 E13.39527
G1 X102.768 Y92.431 E13.50424
G1 X103.727 Y92.022 E13.60276
G1 X104.455 Y91.755 E13.67604
G1 X105.207 Y91.564 E13.74936
G1 X105.974 Y91.452 E13.82261
G1 X106.749 Y91.419 E13.89591
G1 X107.524 Y91.467 E13.96929
G1 X107.936 Y91.272 E14.01237
G1 X108.651 Y90.973 E14.0856
G1 X109.394 Y90.749 E14.15894
G1 X110.156 Y90.603 E14.23226
G1 X111.293 Y90.532 E14.33991
G1 X112.338 Y90.546 E14.43867
G1 X113.112 Y90.596 E14.51197
G1 X113.876 Y90.726 E14.58521
G1 X114.624 Y90.934 E14.65857
G1 X115.346 Y91.217 E14.73186
G1 X116.035 Y91.574 E14.80519
G1 X116.084 Y91.606 E14.81072
G1 X116.489 Y91.573 E14.84912
G1 X117.265 Y91.589 E14.92247
G1 X118.034 Y91.685 E14.9957
G1 X118.79 Y91.859 E15.06901
G1 X119.524 Y92.111 E15.14235
G1 X119.882 Y92.266 E15.17921
G1 X120.83 Y92.705 E15.27794
G1 X121.516 Y93.066 E15.35119
G1 X122.161 Y93.497 E15.4245
G1 X122.759 Y93.991 E15.4978
G1 X123.302 Y94.545 E15.57111
G1 X123.786 Y95.151 E15.6444
G1 X123.813 Y95.193 E15.64912
G1 X124.214 Y95.334 E15.68929
G1 X124.915 Y95.666 E15.76258
G1 X125.578 Y96.068 E15.83586
G1 X126.196 Y96.537 E15.90917
G1 X127.01 Y97.336 E16.01696
G1 X127.698 Y98.122 E16.11567
G1 X128.178 Y98.731 E16.18895
G1 X128.593 Y99.386 E16.26222
G1 X128.938 Y100.081 E16.33555
G1 X129.21 Y100.807 E16.40881
G1 X129.406 Y101.558 E16.48216
G1 X129.414 Y101.61 E16.48713
G1 X129.727 Y101.906 E16.52784
G1 X130.232 Y102.494 E16.60109
G1 X130.674 Y103.132 E16.67443
G1 X131.048 Y103.811 E16.74769
G1 X131.472 Y104.89 E16.85724
G1 X131.778 Y105.888 E16.95589
G1 X131.967 Y106.64 E17.02916
G1 X132.078 Y107.408 E17.10249
G1 X132.108 Y108.183 E17.17578
G1 X132.059 Y108.957 E17.24907
G1 X131.931 Y109.722 E17.32237
G1 X132.08 Y110.132 E17.3636
G1 X132.304 Y110.875 E17.43693
G1 X132.45 Y111.637 E17.51025
G1 X132.517 Y112.409 E17.58348
G1 X132.505 Y113.185 E17.65682
G1 X132.468 Y113.574 E17.69374
G1 X132.343 Y114.611 E17.79245
G1 X132.211 Y115.375 E17.86572
G1 X132 Y116.121 E17.93898
G1 X131.714 Y116.842 E18.01228
G1 X131.355 Y117.53 E18.08561
G1 X130.928 Y118.177 E18.15887
G1 X130.899 Y118.213 E18.16324
G1 X130.887 Y118.648 E18.20436
G1 X130.787 Y119.418 E18.27774
G1 X130.609 Y120.172 E18.35095
G1 X130.353 Y120.905 E18.42432
G1 X129.846 Y121.922 E18.53171
G1 X129.311 Y122.818 E18.63033
G1 X128.879 Y123.462 E18.70361
G1 X128.384 Y124.059 E18.7769
G1 X127.83 Y124.602 E18.8502
G1 X127.223 Y125.084 E18.92345
G1 X126.569 Y125.502 E18.9968
G1 X126.526 Y125.523 E19.00132
G1 X126.346 Y125.904 E19.04114
G1 X125.943 Y126.567 E19.11446
G1 X125.474 Y127.185 E19.18777
G1 X124.944 Y127.751 E19.26105
G1 X124.049 Y128.489 E19.37067
G1 X123.194 Y129.09 E19.46943
G1 X122.538 Y129.503 E19.54269
G1 X121.842 Y129.846 E19.61601
G1 X121.115 Y130.115 E19.68927
G1 X120.364 Y130.309 E19.76257
G1 X119.596 Y130.424 E19.83595
G1 X119.231 Y130.702 E19.87931
G1 X118.593 Y131.143 E19.9526
G1 X117.913 Y131.516 E20.0259
G1 X117.198 Y131.817 E20.09921
G1 X116.105 Y132.121 E20.20641
G1 X115.078 Y132.325 E20.30536
G1 X114.311 Y132.437 E20.37861
G1 X113.536 Y132.469 E20.45191
G1 X112.761 Y132.421 E20.52529
G1 X111.996 Y132.294 E20.59857
G1 X111.248 Y132.088 E20.67189
G1 X111.194 Y132.067 E20.67737
G1 X110.786 Y132.188 E20.71758
G1 X110.024 Y132.332 E20.79086
G1 X109.251 Y132.396 E20.86416
G1 X108.476 Y132.381 E20.93741
G1 X107.34 Y132.212 E21.04595
G1 X106.323 Y131.98 E21.14452
G1 X105.577 Y131.768 E21.21781
G1 X104.856 Y131.481 E21.29115
G1 X104.169 Y131.122 E21.3644
G1 X103.523 Y130.693 E21.43768
G1 X102.924 Y130.201 E21.51093
G1 X102.889 Y130.166 E21.51561
G1 X102.465 Y130.11 E21.55602
G1 X101.711 Y129.931 E21.62926
G1 X100.978 Y129.676 E21.7026
G1 X100.276 Y129.346 E21.7759
G1 X99.309 Y128.73 E21.88425
G1 X98.474 Y128.104 E21.98287
G1 X97.878 Y127.607 E22.0562
G1 X97.337 Y127.052 E22.12945
G1 X96.855 Y126.444 E22.20277
G1 X96.439 Y125.789 E22.27609
G1 X96.092 Y125.096 E22.34933
G1 X96.075 Y125.052 E22.35379
G1 X95.71 Y124.829 E22.39421
G1 X95.093 Y124.358 E22.46756
G1 X94.528 Y123.827 E22.54084
G1 X94.021 Y123.24 E22.61413
G1 X93.388 Y122.284 E22.72249
G1 X92.88 Y121.373 E22.82106
G1 X92.537 Y120.677 E22.89438
G1 X92.269 Y119.949 E22.96769
G1 X92.076 Y119.198 E23.04097
G1 X91.962 Y118.431 E23.11424
G1 X91.927 Y117.656 E23.18756
G1 X91.93 Y117.608 E23.1921
G1 X91.697 Y117.272 E23.23074
G1 X91.324 Y116.593 E23.30395
G1 X91.022 Y115.878 E23.3773
G1 X90.796 Y115.136 E23.4506
G1 X90.602 Y113.991 E23.56034
G1 X90.508 Y112.95 E23.65912
G1 X90.479 Y112.175 E23.7324
G1 X90.529 Y111.401 E23.8057
G1 X90.658 Y110.636 E23.87901
G1 X90.866 Y109.889 E23.95229
G1 X91.149 Y109.167 E24.02557
G1 X91.172 Y109.122 E24.03035
G1 X91.092 Y108.688 E24.07205
G1 X91.03 Y107.915 E24.14534
G1 X91.048 Y107.139 E24.21869
G1 X91.146 Y106.37 E24.29195
G1 X91.431 Y105.273 E24.39905
G1 X91.768 Y104.286 E24.49761
G1 X92.056 Y103.565 E24.57098
G1 X92.416 Y102.879 E24.64419
G1 X92.846 Y102.233 E24.71753
G1 X93.34 Y101.635 E24.79083
G1 X93.892 Y101.09 E24.86413
G1 X93.928 Y101.061 E24.8685
G1 X94.024 Y100.658 E24.90765
G1 X94.279 Y99.926 E24.9809
G1 X94.609 Y99.224 E25.0542
G1 X95.009 Y98.559 E25.12754
G1 X95.475 Y97.939 E25.20083
G1 X95.735 Y97.645 E25.23792
G1 X96.447 Y96.879 E25.33675
G0 F4320 X96.704 Y97.117
G1 F1800 X97.248 Y96.59 E25.40832
G1 X97.845 Y96.124 E25.47989
G1 X98.487 Y95.723 E25.55142
G1 X99.168 Y95.392 E25.62298
G1 X99.881 Y95.135 E25.6946
G1 X99.932 Y95.122 E25.69957
G1 X100.325 Y94.623 E25.7596
G1 X100.854 Y94.08 E25.83124
G1 X101.437 Y93.597 E25.90278
G1 X102.068 Y93.177 E25.97441
G1 X102.905 Y92.753 E26.06308
G1 X103.864 Y92.344 E26.1616
G1 X104.576 Y92.084 E26.23323
G1 X105.31 Y91.901 E26.30472
G1 X106.06 Y91.796 E26.37628
G1 X106.817 Y91.77 E26.44786
G1 X107.573 Y91.825 E26.51949
G1 X107.628 Y91.835 E26.52478
G1 X108.184 Y91.542 E26.58417
G1 X108.887 Y91.261 E26.65571
G1 X109.616 Y91.056 E26.72727
G1 X110.363 Y90.929 E26.79888
G1 X111.288 Y90.882 E26.8864
G1 X112.333 Y90.896 E26.98516
G1 X113.089 Y90.946 E27.05676
G1 X113.835 Y91.075 E27.12831
G1 X114.563 Y91.283 E27.19986
G1 X115.266 Y91.566 E27.27147
G1 X115.935 Y91.921 E27.34304
G1 X115.996 Y91.962 E27.34999
G1 X116.607 Y91.92 E27.40786
G1 X117.364 Y91.948 E27.47945
G1 X118.113 Y92.056 E27.55096
G1 X118.848 Y92.242 E27.62261
G1 X119.735 Y92.583 E27.71241
G1 X120.683 Y93.022 E27.81113
G1 X121.353 Y93.376 E27.88274
G1 X121.981 Y93.799 E27.9543
G1 X122.561 Y94.286 E28.02586
G1 X123.087 Y94.831 E28.09744
G1 X123.553 Y95.428 E28.16901
G1 X123.586 Y95.48 E28.17483
G1 X124.179 Y95.699 E28.23457
G1 X124.858 Y96.034 E28.30612
G1 X125.498 Y96.439 E28.37769
G1 X126.092 Y96.909 E28.44927
G1 X126.747 Y97.566 E28.53694
G1 X127.435 Y98.352 E28.63565
G1 X127.903 Y98.948 E28.70726
G1 X128.306 Y99.589 E28.77882
G1 X128.638 Y100.269 E28.85033
G1 X128.898 Y100.981 E28.92195
G1 X129.081 Y101.716 E28.99353
G1 X129.09 Y101.781 E28.99973
G1 X129.547 Y102.225 E29.05995
G1 X130.031 Y102.808 E29.13155
G1 X130.451 Y103.438 E29.2031
G1 X130.802 Y104.109 E29.27466
G1 X131.138 Y104.993 E29.36403
G1 X131.444 Y105.991 E29.46268
G1 X131.627 Y106.725 E29.53416
G1 X131.732 Y107.476 E29.60582
G1 X131.758 Y108.232 E29.67731
G1 X131.703 Y108.988 E29.74894
G1 X131.569 Y109.733 E29.82047
G1 X131.556 Y109.778 E29.8249
G1 X131.786 Y110.352 E29.88333
G1 X131.993 Y111.08 E29.95486
G1 X132.122 Y111.826 E30.0264
G1 X132.171 Y112.582 E30.09799
G1 X132.12 Y113.532 E30.1879
G1 X131.995 Y114.569 E30.2866
G1 X131.865 Y115.315 E30.35816
G1 X131.657 Y116.043 E30.42971
G1 X131.373 Y116.745 E30.50127
G1 X131.017 Y117.414 E30.57289
G1 X130.593 Y118.041 E30.64441
G1 X130.554 Y118.087 E30.65011
G1 X130.529 Y118.728 E30.71073
G1 X130.419 Y119.477 E30.78227
G1 X130.231 Y120.211 E30.85388
G1 X129.967 Y120.92 E30.92537
G1 X129.545 Y121.742 E31.01269
G1 X129.01 Y122.638 E31.11131
G1 X128.588 Y123.267 E31.18288
G1 X128.102 Y123.848 E31.25446
G1 X127.558 Y124.375 E31.32604
G1 X126.961 Y124.841 E31.39761
G1 X126.318 Y125.241 E31.46917
G1 X126.263 Y125.268 E31.47496
G1 X125.986 Y125.832 E31.53434
G1 X125.582 Y126.473 E31.60594
G1 X125.113 Y127.067 E31.67746
G1 X124.584 Y127.609 E31.74903
G1 X123.848 Y128.203 E31.83841
G1 X122.993 Y128.804 E31.93717
G1 X122.351 Y129.206 E32.00875
G1 X121.671 Y129.538 E32.08026
G1 X120.959 Y129.797 E32.15186
G1 X120.224 Y129.98 E32.22344
G1 X119.474 Y130.083 E32.29498
G1 X119.417 Y130.085 E32.30037
G1 X118.932 Y130.489 E32.36002
G1 X118.302 Y130.909 E32.43157
G1 X117.631 Y131.261 E32.50318
G1 X116.927 Y131.54 E32.57474
G1 X116.037 Y131.778 E32.6618
G1 X115.01 Y131.982 E32.76075
G1 X114.26 Y132.09 E32.83235
G1 X113.503 Y132.118 E32.90394
G1 X112.748 Y132.067 E32.97545
G1 X112.002 Y131.936 E33.04702
G1 X111.274 Y131.727 E33.1186
G1 X111.208 Y131.7 E33.12534
G1 X110.6 Y131.873 E33.18507
G1 X109.853 Y132.001 E33.25669
G1 X109.098 Y132.05 E33.32819
G1 X108.341 Y132.018 E33.39979
G1 X107.418 Y131.87 E33.48813
G1 X106.401 Y131.638 E33.58671
G1 X105.673 Y131.431 E33.65823
G1 X104.97 Y131.148 E33.72984
G1 X104.301 Y130.793 E33.80141
G1 X103.674 Y130.369 E33.87294
G1 X103.094 Y129.882 E33.94451
G1 X103.05 Y129.836 E33.95052
G1 X102.423 Y129.746 E34.01038
G1 X101.689 Y129.559 E34.08196
G1 X100.979 Y129.296 E34.15351
G1 X100.301 Y128.96 E34.22502
G1 X99.519 Y128.45 E34.31325
G1 X98.684 Y127.824 E34.41187
G1 X98.103 Y127.338 E34.48345
G1 X97.576 Y126.794 E34.55502
G1 X97.11 Y126.197 E34.62659
G1 X96.709 Y125.555 E34.69812
G1 X96.378 Y124.874 E34.76967
G1 X96.358 Y124.818 E34.77529
G1 X95.82 Y124.479 E34.83539
G1 X95.225 Y124.01 E34.90698
G1 X94.683 Y123.481 E34.97855
G1 X94.2 Y122.897 E35.05017
G1 X93.693 Y122.113 E35.1384
G1 X93.185 Y121.202 E35.23697
G1 X92.852 Y120.522 E35.30852
G1 X92.592 Y119.811 E35.38006
G1 X92.409 Y119.076 E35.45164
G1 X92.304 Y118.326 E35.52321
G1 X92.278 Y117.569 E35.59478
G1 X92.283 Y117.507 E35.60066
G1 X91.939 Y116.997 E35.6588
G1 X91.585 Y116.327 E35.73041
G1 X91.304 Y115.624 E35.80195
G1 X91.098 Y114.895 E35.87354
G1 X90.951 Y113.959 E35.96307
G1 X90.857 Y112.918 E36.06185
G1 X90.829 Y112.161 E36.13343
G1 X90.881 Y111.406 E36.20495
G1 X91.012 Y110.66 E36.27653
G1 X91.221 Y109.932 E36.3481
G1 X91.505 Y109.23 E36.41966
G1 X91.534 Y109.175 E36.42554
G1 X91.425 Y108.536 E36.4868
